fuse-off.svg

<svg fill="currentColor" viewBox="0 0 24 24"><path d="M15 11.8 10.2 7H15zM16 6V2c0-.55-.45-1-1-1H8c-.55 0-1 .45-1 1v1.8L9.2 6zM2.39 1.73 1.11 3 8 9.89V17h7.11l5.73 5.73 1.27-1.27zM7 22c0 .55.45 1 1 1h7c.55 0 1-.45 1-1v-4H7z"/></svg>

<svg  viewBox="0 0 24 24" fill="currentColor"><path  d="M15 11.8L10.2 7H15V11.8M16 6V2C16 1.45 15.55 1 15 1H8C7.45 1 7 1.45 7 2V3.8L9.2 6H16M2.39 1.73L1.11 3L8 9.89V17H15.11L20.84 22.73L22.11 21.46L2.39 1.73M7 22C7 22.55 7.45 23 8 23H15C15.55 23 16 22.55 16 22V18H7V22Z"/></svg>
